packages/foundations/assets/icons/functional/images/file/notebook_24.svg

<svg width="24" height="24" viewBox="0 0 24 24" fill="none" xmlns="http://www.w3.org/2000/svg">
<g clip-path="url(#clip0_185_984)">
<path fill-rule="evenodd" clip-rule="evenodd" d="M19 2C19.5523 2 20 2.44772 20 3V21C20 21.5523 19.5523 22 19 22H7C6.44772 22 6 21.5523 6 21V17H5C4.44772 17 4 16.5523 4 16C4 15.4477 4.44772 15 5 15H6V9H5C4.44772 9 4 8.55228 4 8C4 7.44772 4.44772 7 5 7H6V3C6 2.48716 6.38604 2.06449 6.88338 2.00673L7 2H19ZM18 4H8V20H18V4ZM15 13C15.5523 13 16 13.4477 16 14C16 14.5523 15.5523 15 15 15H11C10.4477 15 10 14.5523 10 14C10 13.4477 10.4477 13 11 13H15ZM15 9C15.5523 9 16 9.44772 16 10C16 10.5523 15.5523 11 15 11H11C10.4477 11 10 10.5523 10 10C10 9.44772 10.4477 9 11 9H15Z" fill="#1A1C1F"/>
</g>
<defs>
<clipPath id="clip0_185_984">
<rect width="24" height="24" fill="white"/>
</clipPath>
</defs>
</svg>

<svg xmlns="http://www.w3.org/2000/svg" width="24" height="24" fill="none"><g clip-path="url(#a)"><path fill="#1A1C1F" fill-rule="evenodd" d="M19 2a1 1 0 0 1 1 1v18a1 1 0 0 1-1 1H7a1 1 0 0 1-1-1v-4H5a1 1 0 1 1 0-2h1V9H5a1 1 0 0 1 0-2h1V3a1 1 0 0 1 .883-.993L7 2zm-1 2H8v16h10zm-3 9a1 1 0 1 1 0 2h-4a1 1 0 1 1 0-2zm0-4a1 1 0 1 1 0 2h-4a1 1 0 1 1 0-2z" clip-rule="evenodd"/></g><defs><clipPath id="a"><path fill="#fff" d="M0 0h24v24H0z"/></clipPath></defs></svg>
